public/copy.svg

<svg xmlns="http://www.w3.org/2000/svg" width="24" height="24" viewBox="0 0 24 24"><path fill="#fff" d="M17.594 4.062c-.328-.548-.773-1.036-1.32-1.442-.079-.164-.167-.333-.274-.503-.838-1.346-2.295-2.117-4-2.117-1.658 0-3.093.759-3.936 2.083-.102.16-.189.319-.264.475-.585.418-1.056.928-1.4 1.505-2.069.141-3.709 1.829-3.709 3.935v11.968c0 2.2 1.79 4.034 3.989 4.034h10.64c2.199 0 3.988-1.834 3.988-4.034v-11.968c.001-2.108-1.642-3.797-3.714-3.936m-7.597.301s.164-1.704 2.003-1.704c1.928 0 2.042 1.728 2.042 1.728.904.394 1.551 1.081 1.551 2.058h-7.184c0-1 .664-1.693 1.588-2.082m8.651 15.603c0 .733-.596 1.374-1.328 1.374h-10.64c-.733 0-1.329-.641-1.329-1.374v-11.968c0-.402.18-.749.462-.98.262 1.194 1.323 2.088 2.596 2.088h7.183c1.271 0 2.334-.894 2.596-2.088.281.232.461.579.461.98v11.968z"/></svg>

<?xml version="1.0" encoding="utf-8"?>
<!-- Generator: Adobe Illustrator 16.0.0, SVG Export Plug-In . SVG Version: 6.00 Build 0)  -->
<!DOCTYPE svg PUBLIC "-//W3C//DTD SVG 1.1//EN" "http://www.w3.org/Graphics/SVG/1.1/DTD/svg11.dtd">
<svg version="1.1" id="Layer_1" xmlns="http://www.w3.org/2000/svg" xmlns:xlink="http://www.w3.org/1999/xlink" x="0px" y="0px"
	 width="24px" height="24px" viewBox="0 0 24 24" enable-background="new 0 0 24 24" xml:space="preserve">
<path fill="#FFFFFF" d="M17.594,4.062c-0.328-0.548-0.773-1.036-1.32-1.442C16.195,2.456,16.107,2.287,16,2.117
	C15.162,0.771,13.705,0,12,0c-1.658,0-3.093,0.759-3.936,2.083C7.962,2.243,7.875,2.402,7.8,2.558
	C7.215,2.976,6.744,3.486,6.4,4.063C4.331,4.204,2.691,5.892,2.691,7.998v11.968c0,2.2,1.79,4.034,3.989,4.034h10.64
	c2.199,0,3.988-1.834,3.988-4.034V7.998C21.309,5.89,19.666,4.201,17.594,4.062 M9.997,4.363c0,0,0.164-1.704,2.003-1.704
	c1.928,0,2.042,1.728,2.042,1.728c0.904,0.394,1.551,1.081,1.551,2.058H8.409C8.409,5.445,9.073,4.752,9.997,4.363 M18.648,19.966
	c0,0.733-0.596,1.374-1.328,1.374H6.68c-0.733,0-1.329-0.641-1.329-1.374V7.998c0-0.402,0.18-0.749,0.462-0.98
	c0.262,1.194,1.323,2.088,2.596,2.088h7.183c1.271,0,2.334-0.894,2.596-2.088c0.281,0.232,0.461,0.579,0.461,0.98V19.966z"/>
</svg>
